X:1
T:James Gibb editions
T:Jesu, Salvator mundi - Menegali
T:#
%%score [ 1 2 3 ]
L:1/8
Q:1/4=46
M:4/4
K:G
V:1 treble-8 nm="Tenor I" snm="T I"
V:2 treble-8 nm="Tenor II" snm="T II"
V:3 bass nm="Bass" snm="B"
V:1
"^Menegali""^Jesu, Salvator mundi"!p!"^largo assai" B4 B4 | z2!mf! B2!>(! B2 B2 | (B2 A2)!>)! B4 | %3
w: Je- su,|Sal- va- tor|mun\- * di,|
[M:4/4][K:treble-8]!f! B2 d2 e>e e2 |!>(! A3 A!>)! B4 |!p! c2 cc ^c2 c2 |"^cresc." d3 d d4 | %7
w: tu- is fa- mu- lis|sub- ve- ni,|quos pre- ti- o- so|san- gui- ne,|
!mf!!<(! d2 dd ^d2 d2!<)! | e>!>(!B"^," B2!>)!!mp! c2 c2 |!>(! (F2 G2 F4)!>)! | !fermata!E8 :| %11
w: quos pre- ti- o- so|san- gui- ne re- de-|mi\- * *|sti.|
V:2
!p! G4 F4 | z2!mf! B2!>(! A2 G2 | E4!>)! F4 |[M:4/4][K:treble-8]!f! G2 G2 G>G G2 | %4
w: Je- su,|Sal- va- tor|mun- di,|tu- is fa- mu- lis|
!>(! (G2 F)F!>)! G4 |!p! E2 EE E2 E2 |"^cresc." F3 F F4 |!mf!!<(! F2 FF F2 F2!<)! | %8
w: sub\- * ve- ni,|quos pre- ti- o- so|san- gui- ne,|quos pre- ti- o- so|
 G>!>(!G"^," G2!>)!!mp! A2 E2 |!>(! (^D2 E4 D2)!>)! | !fermata!E8 :| %11
w: san- gui- ne re- de-|mi\- * *|sti.|
V:3
!p! E,4 ^D,4 | z2!mf! G,2!>(! F,2 E,2 | C,4!>)! B,,4 |[M:4/4]!f! G,,2 B,,2 C,>C, C,2 | %4
w: Je- su.|Sal- va- tor|mun- di,|tu- is fa- mu- lis|
!>(! D,3 D,!>)! G,,4 |!p! C,2 C,C, A,,2 A,,2 |"^cresc." D,3 D, D,4 | %7
w: sub- ve- ni,|quos pre- ti- o- so|san- gui- ne,|
!mf!!<(! D,2 D,D, B,,2 B,,2!<)! | E,>!>(!E,"^," E,2!>)!!mp! C,2 A,,2 |!>(! B,,8!>)! | %10
w: quos pre- ti- o- so|san- gui- ne re- de-|mi-|
 !fermata!E,8 :| %11
w: sti.|

